X: 3
T: The Haunted House
C: Vincent (&amp; Peter) Broderick
M: 6/8
L: 1/8
R: jig
K: Gmaj
|: D |\
G^FG A^GA | BGE EDE | GB/c/d egd | ege edB |
G2 G A2 A | BGE EDE | GBd e/f/ge | dBA G2 :|
|: D |\
GB/c/d egd | ege edB | GBd ded | ded dBA |
[1 GBd e2 d | ege edB | GB/c/d ege | dBA G2 :|
[2 G2 G A^GA | BGE E2 D | GBd e2 g | dBA G2 |]
